X:535
T: Strand Road
S: B.Breathnach:"Ceol Rince na hEireann" IV/17 (gan ainm)
Z: B.Black
N: No repeats
L: 1/8
M: 6/8
R: jig
K: D
FDD GEE|FDD GEE|FGA BAG|FGA ABc|
dBB cAA|BGB AGF|GFE Ddc|dAF D3 ||
fdd gee|fdf edc|dcd Bed|cAA ABc|
dBB cAA|BGB AGF|GFE Ddc|dAF D3 ||
fdd gee|fdf edc|dcd Bed|cAA ABc|
dd/d/B cc/c/A|BB/B/G AA/A/F|GFE Ddc|dAF D3 ||
